src/icons/solid/symbols/archive.svg

<svg width="24" height="24" viewBox="0 0 24 24" fill="none" xmlns="http://www.w3.org/2000/svg">
<g clip-path="url(#clip0_4704_854)">
<path fill-rule="evenodd" clip-rule="evenodd" d="M21.0693 9.2168C21.6016 9.21685 22.0293 9.72087 22.0293 10.3301V19.7734C22.0292 21.0023 21.1731 22 20.1191 22H3.85938C2.80548 21.9999 1.95034 21.0022 1.9502 19.7734V10.3301C1.9502 9.71033 2.3779 9.2168 2.91016 9.2168H21.0693ZM10.0693 11.7266C9.40146 11.7266 8.86922 12.3466 8.86914 13.1133C8.86914 13.8801 9.41184 14.5 10.0693 14.5H13.8994C14.5673 14.5 15.0996 13.8801 15.0996 13.1133C15.0995 12.3466 14.5569 11.7266 13.8994 11.7266H10.0693Z" fill="#3C3B44"/>
<path d="M21.0898 2C22.1438 2 22.9998 2.86113 23 3.92188V6.81055C23 7.3462 22.5722 7.77724 22.04 7.77734H1.95996C1.42779 7.77724 1 7.3462 1 6.81055V3.92188C1.00021 2.86113 1.85621 2 2.91016 2H21.0898Z" fill="#3C3B44"/>
</g>
<defs>
<clipPath id="clip0_4704_854">
<rect width="24" height="24" fill="white"/>
</clipPath>
</defs>
</svg>

<svg xmlns="http://www.w3.org/2000/svg" width="24" height="24" fill="none" viewBox="0 0 24 24"><g fill="currentColor" clip-path="url(#a)"><path fill-rule="evenodd" d="M21.07 9.217c.532 0 .96.504.96 1.113v9.443c0 1.23-.857 2.227-1.91 2.227H3.86c-1.055 0-1.91-.998-1.91-2.227V10.33c0-.62.428-1.113.96-1.113zm-11 2.51c-.669 0-1.2.62-1.2 1.386 0 .767.542 1.387 1.2 1.387h3.83c.667 0 1.2-.62 1.2-1.387 0-.766-.543-1.386-1.2-1.386z" clip-rule="evenodd"/><path d="M21.09 2C22.144 2 23 2.861 23 3.922V6.81a.96.96 0 0 1-.96.966H1.96A.96.96 0 0 1 1 6.811V3.92C1 2.862 1.856 2 2.91 2z"/></g><defs><clipPath id="a"><path fill="currentColor" d="M0 0h24v24H0z"/></clipPath></defs></svg>
